X:3380
L:1/8
Q:1/8=232
M:4/4
K:Gmin
|: B | DG BG dG BG | FA cf FA GF | DG BG dG BG | Af d/c/B/A/ BG GB | DG BG dG BG | FA cf FA GF | 
 DG BG dG BG | Af d/c/B/A/ BG Gg | bg dg Gd gb | af cf Ac fa | bg dg fd cB | Af d/c/B/A/ BG Gg | 
 bg dg Gd gb | af cf Ac fa | bg af gd =fc | Af d/c/B/A/ BG G :|

